packages/katcn/src/icons/svg/dataStorage-solid.svg

<svg width="24" height="25" viewBox="0 0 24 25" fill="none" xmlns="http://www.w3.org/2000/svg">
<path d="M20.2 5.21201C19.9 3.51201 18.4 2.31201 16.7 2.31201H7.1C5.4 2.31201 3.9 3.51201 3.6 5.21201L2 13.612C2.7 12.912 3.9 12.512 5 12.512H18.8C19.9 12.512 21.1 12.912 21.8 13.612L20.2 5.21201Z" fill="black"/>
<path d="M21.4 17.112V19.712C21.4 21.112 20.2 22.312 18.8 22.312H5.00002C3.60002 22.312 2.40002 21.112 2.40002 19.712V17.112C2.40002 16.712 2.60002 16.012 2.80002 15.712C3.30002 15.012 4.00002 14.512 5.00002 14.512H18.8C19.7 14.512 20.5 15.012 21 15.712C21.3 16.112 21.4 16.712 21.4 17.112Z" fill="black"/>
<path d="M7.80001 19.312H6.20001C5.60001 19.312 5.20001 18.912 5.20001 18.312C5.20001 17.712 5.60001 17.312 6.20001 17.312H7.80001C8.40001 17.312 8.80001 17.712 8.80001 18.312C8.80001 18.912 8.40001 19.312 7.80001 19.312Z" fill="white"/>
</svg>

<svg xmlns="http://www.w3.org/2000/svg" fill="none" viewBox="0 0 24 25"><path fill="#000" d="M20.2 5.212c-.3-1.7-1.8-2.9-3.5-2.9H7.1c-1.7 0-3.2 1.2-3.5 2.9l-1.6 8.4c.7-.7 1.9-1.1 3-1.1h13.8c1.1 0 2.3.4 3 1.1zm1.2 11.9v2.6c0 1.4-1.2 2.6-2.6 2.6H5c-1.4 0-2.6-1.2-2.6-2.6v-2.6c0-.4.2-1.1.4-1.4.5-.7 1.2-1.2 2.2-1.2h13.8c.9 0 1.7.5 2.2 1.2.3.4.4 1 .4 1.4"/><path fill="#fff" d="M7.8 19.312H6.2c-.6 0-1-.4-1-1s.4-1 1-1h1.6c.6 0 1 .4 1 1s-.4 1-1 1"/></svg>
